X:1
T:Rachel, LM
T:Rachel, LM
T:Miss E. M. Wren, 1890
T:Public Domain Courtesy of the Cyber Hymnal™
C:Miss E. M. Wren, 1890
Z:Public Domain
Z:Courtesy of the Cyber Hymnal™
%%score ( 1 2 ) 3
L:1/8
Q:1/4=110
M:4/4
K:G
V:1 treble 
V:2 treble 
V:3 bass 
V:1
 [DG]2 | [CG]3 [CF] [CE]2 [CF]2 | [B,E]3 [B,D] [B,D]2 [DB]2 | [^DB]3 [DA] [EG]2 [EA]2 | %4
 [DG]3 [DF] [DF]2 [Fc]2 | [Fc]2 [FB]2 [FA]2 [FB]2 | [FA]3 [^DF] [EG]2 E2 | [B,D]3 [B,E] [CF]2 B2 | %8
 [FA]3 G G2 |] %9
V:2
 x2 | x8 | x8 | x8 | x8 | x8 | x6 E2 | x6 (DE) | x3 G G2 |] %9
V:3
 [G,B,]2 | [D,A,]3 [D,A,] [D,G,]2 [D,A,]2 | [G,,G,]3 [G,,G,] [G,,G,]2 [G,B,]2 | %3
 [F,B,]3 [F,B,] [E,B,]2 [C,C]2 | [D,B,]3 [D,A,] [D,A,]2 [D,A,]2 | [^D,F,]2 [D,B,]2 [D,C]2 [D,B,]2 | %6
 [E,C]3 [E,A,] [E,B,]2 [C,C]2 | [D,G,]3 [D,G,] [D,A,]2 [D,G,]2 | [D,C]3 [G,,B,] [G,,B,]2 |] %9

